X: 11033
M: 6/8
L: 1/8
K: F
c2B |\
EGB e3- | edc BAG | A2A {c}BAB | c3- cdB |\
EGB e3- | edc BAG | FAG FAc | f3 H|: G2F |\
EGB e3- | e(fd cdB) | FAc f3- | f(ge dec) |\
=Bdf b3- | bag fed | ced ceg | "^D.C."[c'3c3] :|


